!!!!SEGMENT: pl-sa--600-a-ix-80--004_anonim--preludium.krn
!!!cenid: 18xx:669
!!!COM: Anonim
!!!COM-rismid: pe30004985
!!!CDT:
!!!CNT:
!!!OTL: Preludium
!!!PDT:
!!!AGN: Secular; Prelude
!!!SMS-siglum: PL-SA
!!!SMS-shelfmark: 600/A IX 80
!!!SMS-shelfwork: 004 W
!!!SMS-variant:
!!!SMS-altvar:
!!!NIFC-rismid: 1001065564
!!!URL-scan: http://bc.bdsandomierz.pl/dlibra/publication/1408/edition/1376/content
!!!ONB-nifc: Str. 3, s. 2
!!!AIN: 2 piano
!!!key:
**kern	**kern
*part2	*part1
*staff2	*staff1
*Ipiano	*Ipiano
*I"Piano	*I"Piano
*group1	*group1
*clefF4	*clefG2
*k[]	*k[]
*C:	*C:
*M2/4	*M2/4
!LO:N:vis=8	!
4r	8G/
.	8r
=1	=1
!LO:TX:a:t=P:problem=brak pauzy 2r	!
2ryy	8B/L
.	8d/
.	8f/
.	8e/J
=2	=2
8G\L 8B	16d/LL
.	16e/
!LO:SIC:n=2:s=8F#:v	!
8G#X\ 8A	16c#X/
.	16e/JJ
!LO:SIC:n=2:s=8Gn:v	!
8G#\J 8B	8d/
8r	8B/
=3	=3
2r	8d/L
.	8f/
.	8a/
.	8g/J
=4	=4
8G\L 8d	16f/LL
.	16g/
8G\ 8c#X	16e/
.	16g/JJ
8G\J 8d	8f/
8r	8d/
=5	=5
4r	8f/L
.	8b/
8G\L 8f	8dd/
8G\J 8e	8cc/J
=6	=6
8G\ 8d	8b\
8r	8r
8G\L 8f	8ddd\L
8G\J 8e	8ccc\J
=7	=7
8G\ 8d	8bb\
8r	8r
8G\L 8d	8fff\L
8G\J 8c	8eee\J
=8	=8
4G\ 4B	8ddd\
.	8r
4r	8bb\
.	8r
=9	=9
8r	8gg\
8G\ 8B	8r
!LO:N:vis=8	!
!LO:TX:a:t=P:problem=niepełna miara taktu - brak nuty lub pauzy	!
4r	8ff\
.	8r
=10	=10
8G\ 8d	8dd\
8r	8r
8G\ 8f	8b\
8r	8r
==	==
*-	*-
!!!system-decoration: [(g1)]
!!!ENC: Anna Matuszewska
!!!END: 2020-11-24
!!!ENC: Andrzej Kubiczek
!!!END: 2020-06-20
